source/images/icon/prague.svg

<svg fill="#d1d5db" height="400" viewBox="0 0 309 400" width="309" xmlns="http://www.w3.org/2000/svg"><path d="m294.756 234.612h-9.226v-110h17.943v-38.6159h-11.703v26.9149h-7.906l-10.817-31.7149v-72.4336h-11.702v38.125l-15.993-46.8875-16.772 49.175v-40.4125h-11.703v74.1125h.208l-10.244 30.035h-5.566v-26.9147h-11.702v38.6167h15.602v97.501l-15.85-26.118h.248v-32.766h-11.703v13.89l-17.943-29.568v-29.18h14.043v-11.702h-14.043v-14.4331h-11.702v14.4331h-14.042v11.702h14.042v29.18l-17.943 29.568v-13.89h-11.702v32.766h.247l-15.069 24.833v-96.216h16.383v-38.6159h-11.703v26.9149h-6.345l-10.8172-31.7149v-72.4336h-11.7024v38.125l-15.9921-46.8875-16.7727 49.175v-40.4125h-11.7023v74.1125h.2078l-10.2453 30.035h-7.1258v-26.9147h-11.70159v38.6167h17.16329v109.999h-10.0078l-13.3969 38.405v126.984h308.153v-126.983zm-271.3521 153.686h-11.7016v-113.298l10.0071-28.687h1.6953v141.985zm221.9481-352.0488 26.149 76.6628h-19.128v-26.9151h-11.702v26.9151h-21.468zm-91.275 124.2158 44.995 74.146h-38.754v-36.277h-11.702v36.277h-39.535zm-90.4957-124.2158 26.1484 76.6628h-20.6875v-26.9151h-11.7024v26.9151h-19.9078zm-28.475 88.3628h56.95v110h-56.95zm113.1197 263.686h-24.185v-22.104h24.185zm0-33.806h-24.185v-30.165h24.185zm0-41.867h-24.185v-8.191c0-9.901 13.839-20.192 24.185-26.229zm35.886 75.673h-24.185v-22.104h24.185zm0-33.806h-24.185v-30.165h24.185zm0-41.867h-24.185v-34.432c10.347 6.026 24.185 16.307 24.185 26.241zm89.715 75.673h-78.013v-83.864c0-22.949-35.319-39.424-39.347-41.227l-2.39-1.07-2.391 1.07c-4.028 1.803-39.347 18.279-39.347 41.227v83.864h-77.2335v-141.984h238.7215zm0-153.686h-56.95v-110h56.95zm22.624 153.686h-10.922v-141.985h.915l10.007 28.687z"/><path d="m63.5812 144.896c-9.6789 0-17.5531 7.875-17.5531 17.554v33.936h35.1062v-33.936c-.0008-9.679-7.8742-17.554-17.5531-17.554zm5.8508 39.787h-11.7024v-22.233c0-3.227 2.6243-5.851 5.8508-5.851 3.2266 0 5.8508 2.624 5.8508 5.851v22.233z"/><path d="m245.352 144.896c-9.679 0-17.553 7.875-17.553 17.554v33.936h35.106v-33.936c0-9.68-7.874-17.554-17.553-17.554zm5.851 39.787h-11.702v-22.233c0-3.227 2.624-5.851 5.851-5.851 3.226 0 5.85 2.624 5.85 5.851v22.233z"/><path d="m63.5812 258.016c-9.6789 0-17.5531 7.874-17.5531 17.553v33.936h35.1062v-33.936c-.0008-9.68-7.8742-17.553-17.5531-17.553zm5.8508 39.786h-11.7024v-22.233c0-3.227 2.6243-5.851 5.8508-5.851 3.2266 0 5.8508 2.624 5.8508 5.851v22.233z"/><path d="m245.352 258.016c-9.679 0-17.553 7.874-17.553 17.553v33.936h35.106v-33.936c0-9.68-7.874-17.553-17.553-17.553zm5.851 39.786h-11.702v-22.233c0-3.227 2.624-5.851 5.851-5.851 3.226 0 5.85 2.624 5.85 5.851v22.233z"/><path d="m62.8036 333.686h-12.4821v11.702h12.4821z"/><path d="m90.8892 353.191h-17.1632v11.703h17.1632z"/><path d="m62.8036 367.23h-13.2625v11.703h13.2625z"/><path d="m219.611 318.861h-13.263v11.703h13.263z"/><path d="m219.611 257.232h-30.425v11.703h30.425z"/><path d="m123.654 257.232h-30.4251v11.703h30.4251z"/><path d="m253.936 339.148h-26.524v11.703h26.524z"/><path d="m221.172 360.211h-11.703v11.702h11.703z"/><path d="m264.079 366.455h-20.284v11.702h20.284z"/><path d="m62.8036 212.764h-13.2625v11.702h13.2625z"/><path d="m257.838 211.207h-13.263v11.702h13.263z"/></svg>

<svg width="309" height="400" viewBox="0 0 309 400" fill="#D1D5DB" xmlns="http://www.w3.org/2000/svg">
    <path d="M294.756 234.612H285.53V124.612H303.473V85.9961H291.77V112.911H283.864L273.047 81.1961V8.7625H261.345V46.8875L245.352 0L228.58 49.175V8.7625H216.877V82.875H217.085L206.841 112.91H201.275V85.9953H189.573V124.612H205.175V222.113L189.325 195.995H189.573V163.229H177.87V177.119L159.927 147.551V118.371H173.97V106.669H159.927V92.2359H148.225V106.669H134.183V118.371H148.225V147.551L130.282 177.119V163.229H118.58V195.995H118.827L103.758 220.828V124.612H120.141V85.9961H108.438V112.911H102.093L91.2758 81.1961V8.7625H79.5734V46.8875L63.5813 0L46.8086 49.175V8.7625H35.1063V82.875H35.3141L25.0688 112.91H17.943V85.9953H6.24141V124.612H23.4047V234.611H13.3969L0 273.016V400H308.153V273.017L294.756 234.612ZM23.4039 388.298H11.7023V275L21.7094 246.313H23.4047V388.298H23.4039ZM245.352 36.2492L271.501 112.912H252.373V85.9969H240.671V112.912H219.203L245.352 36.2492ZM154.077 160.465L199.072 234.611H160.318V198.334H148.616V234.611H109.081L154.077 160.465ZM63.5813 36.2492L89.7297 112.912H69.0422V85.9969H57.3398V112.912H37.432L63.5813 36.2492ZM35.1063 124.612H92.0563V234.612H35.1063V124.612ZM148.226 388.298H124.041V366.194H148.226V388.298ZM148.226 354.492H124.041V324.327H148.226V354.492ZM148.226 312.625H124.041V304.434C124.041 294.533 137.88 284.242 148.226 278.205V312.625ZM184.112 388.298H159.927V366.194H184.112V388.298ZM184.112 354.492H159.927V324.327H184.112V354.492ZM184.112 312.625H159.927V278.193C170.274 284.219 184.112 294.5 184.112 304.434V312.625ZM273.827 388.298H195.814V304.434C195.814 281.485 160.495 265.01 156.467 263.207L154.077 262.137L151.686 263.207C147.658 265.01 112.339 281.486 112.339 304.434V388.298H35.1055V246.314H273.827V388.298H273.827ZM273.827 234.612H216.877V124.612H273.827V234.612ZM296.451 388.298H285.529V246.313H286.444L296.451 275V388.298Z"/>
    <path d="M63.5812 144.896C53.9023 144.896 46.0281 152.771 46.0281 162.45V196.386H81.1343V162.45C81.1335 152.771 73.2601 144.896 63.5812 144.896ZM69.432 184.683H57.7296V162.45C57.7296 159.223 60.3539 156.599 63.5804 156.599C66.807 156.599 69.4312 159.223 69.4312 162.45V184.683H69.432Z"/>
    <path d="M245.352 144.896C235.673 144.896 227.799 152.771 227.799 162.45V196.386H262.905V162.45C262.905 152.77 255.031 144.896 245.352 144.896ZM251.203 184.683H239.501V162.45C239.501 159.223 242.125 156.599 245.352 156.599C248.578 156.599 251.202 159.223 251.202 162.45V184.683H251.203Z"/>
    <path d="M63.5812 258.016C53.9023 258.016 46.0281 265.89 46.0281 275.569V309.505H81.1343V275.569C81.1335 265.889 73.2601 258.016 63.5812 258.016ZM69.432 297.802H57.7296V275.569C57.7296 272.342 60.3539 269.718 63.5804 269.718C66.807 269.718 69.4312 272.342 69.4312 275.569V297.802H69.432Z"/>
    <path d="M245.352 258.016C235.673 258.016 227.799 265.89 227.799 275.569V309.505H262.905V275.569C262.905 265.889 255.031 258.016 245.352 258.016ZM251.203 297.802H239.501V275.569C239.501 272.342 242.125 269.718 245.352 269.718C248.578 269.718 251.202 272.342 251.202 275.569V297.802H251.203Z"/>
    <path d="M62.8036 333.686H50.3215V345.388H62.8036V333.686Z"/>
    <path d="M90.8892 353.191H73.726V364.894H90.8892V353.191Z"/>
    <path d="M62.8036 367.23H49.5411V378.933H62.8036V367.23Z"/>
    <path d="M219.611 318.861H206.348V330.564H219.611V318.861Z"/>
    <path d="M219.611 257.232H189.186V268.935H219.611V257.232Z"/>
    <path d="M123.654 257.232H93.2289V268.935H123.654V257.232Z"/>
    <path d="M253.936 339.148H227.412V350.851H253.936V339.148Z"/>
    <path d="M221.172 360.211H209.469V371.913H221.172V360.211Z"/>
    <path d="M264.079 366.455H243.795V378.157H264.079V366.455Z"/>
    <path d="M62.8036 212.764H49.5411V224.466H62.8036V212.764Z"/>
    <path d="M257.838 211.207H244.575V222.909H257.838V211.207Z"/>
</svg>
